src/xmb/monochrome/retroarch.svg

<?xml version="1.0" encoding="UTF-8" standalone="no"?>
<!-- Generator: Adobe Illustrator 16.0.0, SVG Export Plug-In . SVG Version: 6.00 Build 0)  -->

<svg
   xmlns:dc="http://purl.org/dc/elements/1.1/"
   xmlns:cc="http://creativecommons.org/ns#"
   xmlns:rdf="http://www.w3.org/1999/02/22-rdf-syntax-ns#"
   xmlns:svg="http://www.w3.org/2000/svg"
   xmlns="http://www.w3.org/2000/svg"
   xmlns:sodipodi="http://sodipodi.sourceforge.net/DTD/sodipodi-0.dtd"
   xmlns:inkscape="http://www.inkscape.org/namespaces/inkscape"
   version="1.1"
   id="svg2"
   inkscape:export-filename="/home/kivutar/Bureau/lakka-menu/reload.png"
   inkscape:export-xdpi="90"
   inkscape:version="0.92.3 (2405546, 2018-03-11)"
   inkscape:export-ydpi="90"
   sodipodi:docname="retroarch.svg"
   x="0px"
   y="0px"
   width="64px"
   height="64px"
   viewBox="0 128 64 64"
   enable-background="new 0 128 64 64"
   xml:space="preserve"><metadata
     id="metadata8"><rdf:RDF><cc:Work
         rdf:about=""><dc:format>image/svg+xml</dc:format><dc:type
           rdf:resource="http://purl.org/dc/dcmitype/StillImage" /></cc:Work></rdf:RDF></metadata><defs
     id="defs6" /><sodipodi:namedview
     pagecolor="#808080"
     bordercolor="#666666"
     borderopacity="1"
     objecttolerance="10"
     gridtolerance="10"
     guidetolerance="10"
     inkscape:pageopacity="0"
     inkscape:pageshadow="2"
     inkscape:window-width="1920"
     inkscape:window-height="1001"
     id="namedview4"
     showgrid="true"
     inkscape:zoom="8"
     inkscape:cx="65.371204"
     inkscape:cy="31.826257"
     inkscape:window-x="-9"
     inkscape:window-y="-9"
     inkscape:window-maximized="1"
     inkscape:current-layer="svg2"><inkscape:grid
       type="xygrid"
       id="grid2985"
       empspacing="4"
       visible="true"
       enabled="true"
       snapvisiblegridlinesonly="true" /></sodipodi:namedview><path
     style="fill:#ffffff;fill-opacity:1"
     d="M 32 5 C 9.585 5 5 9.553 5 32 C 5 54.447 9.514 59 32 59 C 54.489 59 59 54.456 59 32 C 59 9.542 54.415 5 32 5 z M 23.255859 20.716797 L 24.591797 20.716797 L 25.925781 20.716797 L 27.503906 22.519531 L 29.080078 24.320312 L 32 24.320312 L 34.919922 24.320312 L 36.496094 22.519531 L 38.074219 20.716797 L 39.408203 20.716797 L 40.744141 20.716797 L 40.683594 20.798828 C 40.650244 20.844628 39.996195 21.65241 39.230469 22.59375 L 37.837891 24.306641 L 41.066406 24.320312 L 44.294922 24.335938 L 44.951172 26.957031 C 45.311605 28.398201 45.615328 29.614346 45.626953 29.660156 L 45.648438 29.744141 L 47.919922 29.744141 C 49.169178 29.744141 50.189939 29.739375 50.189453 29.734375 C 50.189092 29.730375 49.884053 28.510418 49.511719 27.023438 L 48.833984 24.320312 L 50.175781 24.320312 L 51.515625 24.320312 L 52.757812 29.289062 L 54 34.255859 L 50.386719 34.255859 L 46.775391 34.255859 L 47.224609 36.050781 C 47.472014 37.037941 47.675304 37.849426 47.675781 37.853516 C 47.676142 37.857516 46.161517 37.864941 44.310547 37.869141 L 40.945312 37.876953 L 43.3125 40.580078 L 45.677734 43.283203 L 43.625 43.28125 L 41.572266 43.279297 L 39.376953 40.570312 L 37.179688 37.861328 L 32 37.861328 L 26.820312 37.861328 L 24.623047 40.570312 L 22.427734 43.279297 L 20.375 43.28125 L 18.322266 43.283203 L 20.6875 40.580078 L 23.054688 37.876953 L 19.689453 37.869141 C 17.838485 37.865141 16.323739 37.857616 16.324219 37.853516 C 16.324581 37.849516 16.527986 37.037941 16.775391 36.050781 L 17.224609 34.255859 L 13.613281 34.255859 L 10 34.255859 L 11.242188 29.289062 L 12.484375 24.320312 L 13.824219 24.320312 L 15.166016 24.320312 L 14.488281 27.023438 C 14.115946 28.510417 13.811035 29.730215 13.810547 29.734375 C 13.810186 29.738375 14.830826 29.744141 16.080078 29.744141 L 18.351562 29.744141 L 18.373047 29.660156 C 18.384677 29.614356 18.688393 28.398201 19.048828 26.957031 L 19.705078 24.335938 L 22.933594 24.320312 L 26.162109 24.306641 L 24.769531 22.59375 C 24.003802 21.65241 23.349765 20.844638 23.316406 20.798828 L 23.255859 20.716797 z M 37.195312 27.015625 L 37.195312 29.289062 L 37.195312 31.560547 L 39.458984 31.552734 L 41.724609 31.544922 L 41.724609 29.289062 L 41.724609 27.03125 L 39.458984 27.023438 L 37.195312 27.015625 z M 22.275391 27.03125 L 22.267578 29.257812 C 22.263278 30.482393 22.267191 31.502508 22.275391 31.523438 C 22.286921 31.553638 22.758545 31.558934 24.554688 31.552734 L 26.820312 31.544922 L 26.820312 29.289062 L 26.820312 27.03125 L 24.548828 27.03125 L 22.275391 27.03125 z "
     transform="translate(0,128)"
     id="Settings_1_" /></svg>

<svg xmlns="http://www.w3.org/2000/svg" xml:space="preserve" width="64" height="64" viewBox="0 128 64 64"><path d="M32 5C9.585 5 5 9.553 5 32s4.514 27 27 27c22.489 0 27-4.544 27-27C59 9.542 54.415 5 32 5m-8.744 15.717h2.67l1.578 1.803 1.576 1.8h5.84l1.576-1.8 1.578-1.803h2.67l-.06.082c-.034.046-.688.853-1.454 1.795l-1.392 1.713 3.228.013 3.229.016.656 2.621.676 2.703.021.084h2.272c1.25 0 2.27-.005 2.27-.01l-.678-2.71-.678-2.704h2.682l1.242 4.97L54 34.255h-7.225l.45 1.795c.247.987.45 1.798.45 1.803.001.004-1.513.01-3.364.015l-3.366.008 2.367 2.703 2.366 2.703-2.053-.002-2.053-.002-2.195-2.709-2.197-2.709H26.82l-2.197 2.71-2.195 2.708-2.053.002-2.053.002 2.366-2.703 2.367-2.703-3.366-.008a360 360 0 0 1-3.365-.015l.451-1.803.45-1.795H10l1.242-4.967 1.242-4.969h2.682l-.678 2.703-.677 2.711c0 .004 1.02.01 2.27.01h2.27l.022-.084.676-2.703.656-2.621 3.229-.016 3.228-.013-1.392-1.713c-.766-.942-1.42-1.75-1.454-1.795zm13.94 6.299v4.545l2.263-.008 2.266-.008V27.03l-2.266-.008zm-14.92.015-.008 2.227c-.005 1.224 0 2.245.007 2.265.012.03.484.036 2.28.03l2.265-.008V27.03h-4.545" style="fill:#fff;fill-opacity:1" transform="translate(0 128)"/></svg>
